X: 43408
T: Y Cambro-Brython
R: polka
M: 2/4
K: Amajor
e|ce df|ec BA|Aa ec|BB Be|
ce df|ec BA|ce Be|cA A:|
|:e|a2 ec|a2 ec|Aa ec|BB Be|
a2 ec|a2 ec|ce Be|cA A:|

